icons/flickr.svg

<?xml version="1.0" encoding="UTF-8"?>
<svg width="512px" height="160px" viewBox="0 0 512 160" version="1.1" xmlns="http://www.w3.org/2000/svg" xmlns:xlink="http://www.w3.org/1999/xlink" preserveAspectRatio="xMidYMid">
    <g>
        <path d="M21.3884398,75.8194592 L0,75.8194592 L0,49.9371717 L22.0070549,49.9371717 L22.0070549,42.9901951 C22.0070549,11.10663 37.02447,0 66.6326692,0 C74.6675573,0 80.8394874,1.23723023 85.5679822,2.06205038 L83.2926163,27.5674804 C80.2137618,26.5364552 77.1349072,25.903619 71.5602607,25.903619 C62.1032689,25.903619 58.4200203,32.4879592 58.4200203,42.9901951 L58.4200203,49.9371717 L85.2266773,49.9371717 L85.2266773,75.8194592 L58.4200203,75.8194592 L58.4200203,156.73716 L21.3884398,156.73716 L21.3884398,75.8194592 Z M99.5472617,2.43890786 L136.593063,2.43890786 L136.593063,156.73716 L99.5472617,156.73716 L99.5472617,2.43890786 Z M155.06619,4.91336831 L192.076439,4.91336831 L192.076439,32.0755491 L155.06619,32.0755491 L155.06619,4.91336831 Z M155.06619,49.8234034 L192.076439,49.8234034 L192.076439,156.722939 L155.06619,156.722939 L155.06619,49.8234034 Z M292.498293,80.1995386 C285.700637,76.0967694 278.931423,74.2551451 270.100159,74.2551451 C254.030387,74.2551451 241.700748,85.3688856 241.700748,103.870455 C241.700748,120.921478 256.092438,132.028108 272.133768,132.028108 C280.573953,132.028108 288.999918,130.193594 295.171848,126.908535 L296.003778,154.461794 C286.745883,157.540649 275.639253,159.1974 265.748522,159.1974 C230.380803,159.1974 203.439048,138.619559 203.439048,103.237619 C203.439048,67.6423629 230.387913,47.0858538 265.748522,47.0858538 C276.862262,47.0858538 286.738773,48.9488096 295.171848,53.0586893 L292.491182,80.1924281 L292.498293,80.1995386 Z M311.426493,2.43890786 L348.443853,2.43890786 L348.443853,94.6054492 L348.849152,94.6054492 L379.708803,49.5674247 L420.224537,49.5674247 L383.008083,98.7437709 L423.310502,156.73005 L378.471572,156.73005 L348.849152,103.650029 L348.443853,103.650029 L348.443853,156.722939 L311.426493,156.722939 L311.426493,2.42468682 L311.426493,2.43890786 Z M510.144155,79.1827344 C506.034275,77.9383937 501.938616,77.9383937 497.60831,77.9383937 C480.32975,77.9383937 470.645224,90.50268 470.645224,111.48582 L470.645224,156.73005 L433.649196,156.73005 L433.649196,49.5603142 L467.374386,49.5603142 L467.374386,69.3062242 L467.772575,69.3062242 C474.15782,55.7251338 483.415715,47.0858538 499.464156,47.0858538 C503.780241,47.0858538 508.316751,47.6902478 512,48.323084 L510.151265,79.1827344 L510.144155,79.1827344 Z" fill="#000000" fill-rule="nonzero"></path>
    </g>
</svg>

<svg xmlns="http://www.w3.org/2000/svg" viewBox="0 0 512 159.197">
  <path d="M21.388 75.82H0V49.936h22.007V42.99C22.007 11.107 37.024 0 66.633 0c8.035 0 14.206 1.237 18.935 2.062l-2.275 25.505c-3.08-1.03-6.158-1.663-11.733-1.663-9.457 0-13.14 6.584-13.14 17.086v6.947h26.807V75.82H58.42v80.918H21.388zm78.16-73.381h37.045v154.298H99.547zm55.518 2.474h37.01v27.163h-37.01zm0 44.91h37.01v106.9h-37.01zM292.498 80.2c-6.797-4.103-13.567-5.945-22.398-5.945-16.07 0-28.4 11.114-28.4 29.615 0 17.051 14.392 28.158 30.434 28.158 8.44 0 16.866-1.834 23.038-5.12l.832 27.554c-9.258 3.079-20.365 4.735-30.255 4.735-35.368 0-62.31-20.577-62.31-55.96 0-35.595 26.949-56.151 62.31-56.151 11.113 0 20.99 1.863 29.423 5.973l-2.68 27.133zm18.928-77.761h37.018v92.166h.405l30.86-45.038h40.516l-37.217 49.177 40.303 57.986h-44.84l-29.622-53.08h-.405v53.073h-37.018V2.425zm198.718 76.744c-4.11-1.245-8.205-1.245-12.536-1.245-17.278 0-26.963 12.565-26.963 33.548v45.244H433.65V49.56h33.725v19.746h.399c6.385-13.58 15.643-22.22 31.691-22.22 4.316 0 8.853.604 12.536 1.237l-1.849 30.86z"/>
</svg>
